X:1
T:Soldiers of Christ, Arise
T:Soldiers of Christ, Arise
T:Copyright © 
Z:Copyright ©
%%score ( 1 2 3 ) ( 4 5 )
L:1/8
M:4/4
K:G
V:1 treble nm="SOPRANO ALTO" snm="S. A."
V:2 treble 
V:3 treble 
V:4 bass nm="TENOR BASS" snm="T. B."
V:5 bass 
V:1
"^1""^2""^3""^Unison" G2 DD G2 A2 | B2 G2 G2 c2 | B4 [FA]4 | G4 | B2 AG | F2 E2 F2 G2 | %6
w: Sol- diers of Christ, a-|rise and put your|ar- mor|on,|strong in the|strength that God sup-|
w: Stand, then, in his great|might, with all his|strength en-|dued,|and take, to|arm you for the|
w: From strength to strength go|on, to wres- tle,|fight, and|pray;|tread all the|powers of dark- ness|
 A2 F2 D2 G2 | F4 E4 | D4 | D2 EF | [DG]4 [EG]4 | G2 E2 F2 G2 | A4 A4 | [FA]4 |1 G2 AB | %15
w: plies through his e-|ter- nal|Son,|strong in the|Lord of|hosts and in his|might- y|power;|who in the|
w: fight, the weap- ons|of our|God.|To keep your|ar- mor|bright, at- tend with|con- stant|care,|still walk- ing|
w: down and win the|well- fought|day,|till, hav- ing|all things|done and all your|con- flicts|past,|you o- ver-|
 c3 c B2 A2 | d2 B2 G2 [GA]2 | (B4 A3) G | G8 |] %19
w: strength of Je- sus|trusts is more than|con- * quer-|or.|
w: in your cap- tain's|sight and keep- ing|watch * with|prayer.|
w: come through Christ a-|lone and stand com-|plete * at|last.|
V:2
 [B,D]2 [G,B,][G,B,] [B,E]2 [DF]2 | [DG]2 [B,D]2 [B,E]2 [EG]2 | [DG]4 [CD]4 | [B,D]4 | %4
 [DG]2 [B,D]2 | D2 ^C2 D2 C2 | D4 B,2 D2 | D4 ^C4 | D4 | D2 D2 | G2 F2 D2 C2 | [B,D]4 [B,D]4 | %12
 [^CE]2 [A,D]2 [DG]2 FE | D2 =C2 |1 [B,E]4 | [CEG]4 [DG]2 [DF]2 | [DG]4 [B,E]2 E2 | [DG]4 [CDF]4 | %18
 [B,D]8 |] %19
V:3
 x8 | x8 | x8 | x4 | x4 | x8 | x8 | x8 | x4 | x4 | x8 | x8 | x6 ^C2 | x4 |1 x4 | x8 | x8 | x8 | %18
 x8 |] %19
V:4
 G,2 F,2 E,2 D,2 | G,,3 F,, E,,2 C,,2 | D,,4 D,,4 | G,,2 F,,2 | E,,4 | A,4 A,2 A,2 | A,4 F,2 B,2 | %7
 A,4 [G,A,]4 | [F,A,]4 | A,2 A,2 | G,4 C,4 | G,,2 G,2 F,2 E,2 | G,2 F,2 [A,,A,]4 | A,4 |1 %14
"^Copyright 2008 Hymnary.org. You may use this score in personal and corporate worship settings. Commercial use and republication are prohibited without written consent." E,2 F,G, | %15
 A,2 A,,2 F,2 C,2 | B,,3 B,, E,2 C,2 | D,4 D,,4 | G,,8 |] %19
V:5
 x8 | x8 | x8 | x4 | x4 | A,,3 G,, F,,2 E,,2 | F,,2 G,,A,, B,,2 G,,2 | A,,4 A,,4 | D,2 E,2 | %9
 [D,F,]2 C,2 | B,,4 x4 | x8 | A,,4 E,2 G,2 | [D,F,]4 |1 x4 | x8 | x8 | x8 | x8 |] %19

